build/img/svg/icon-whatsapp.svg

<svg width="22" height="23" viewBox="0 0 22 23" fill="none" xmlns="http://www.w3.org/2000/svg">
<path d="M21.7749 11.2905C21.802 16.5987 17.9691 21.1071 12.7959 21.9527C10.6448 22.3219 8.43167 22.0232 6.45687 21.0972C6.3072 21.022 6.13507 21.0041 5.97301 21.0467C4.29624 21.4484 2.61674 21.8384 0.937255 22.2301C0.426264 22.349 0.202877 22.1401 0.309597 21.6204C0.65267 19.9519 1.00027 18.2846 1.35238 16.6185C1.40668 16.4136 1.38716 16.1963 1.29721 16.0043C-1.8022 9.50642 2.29206 1.90715 9.45047 0.853446C15.2803 -0.0039258 20.7502 3.98844 21.6428 9.75589C21.7189 10.2642 21.763 10.7767 21.7749 11.2905ZM3.17929 19.3149C4.15334 19.0843 5.06679 18.8817 5.9712 18.6484C6.1411 18.5984 6.31937 18.5829 6.4954 18.6029C6.67144 18.6228 6.84164 18.6778 6.9959 18.7646C8.64799 19.6524 10.5492 19.9691 12.4016 19.6652C16.9109 18.9627 20.089 14.5948 19.3348 10.1017C18.5723 5.54828 14.3867 2.49614 9.79052 3.14278C4.21032 3.9272 0.95444 9.94231 3.41443 14.9875C3.7563 15.6881 3.86664 16.3123 3.6523 17.0589C3.44428 17.7712 3.34118 18.5178 3.17929 19.3149Z" fill="#FCFDFC"/>
<path d="M13.6066 16.6184C12.6117 16.5959 11.5192 16.1925 10.5189 15.5503C8.72184 14.3976 7.17259 12.9908 6.15603 11.087C5.6984 10.2296 5.44788 9.30466 5.64956 8.32841C5.83045 7.46833 6.41108 6.86313 7.10295 6.3723C7.45567 6.12194 7.94857 6.27323 8.14212 6.6722C8.47494 7.35756 8.7752 8.05733 9.07728 8.7589C9.12348 8.87496 9.13745 9.00126 9.11771 9.12455C9.09798 9.24784 9.04527 9.36356 8.96513 9.45956C8.83851 9.63068 8.70375 9.79639 8.57533 9.9675C8.27868 10.3611 8.2624 10.6394 8.5491 11.0419C9.14149 11.8759 9.91295 12.5351 10.7007 13.1754C11.0629 13.4803 11.4589 13.7429 11.8809 13.9581C12.3051 14.1661 12.6307 14.1526 12.9165 13.7897C13.4329 13.1331 14.0199 12.9971 14.7859 13.3159C15.2381 13.5051 15.7401 13.5861 16.2122 13.7329C16.7123 13.8914 16.9203 14.3823 16.7015 14.8371C16.1534 15.9736 15.1052 16.6229 13.6066 16.6184Z" fill="#FCFDFC"/>
</svg>

<svg width="22" height="23" fill="none" xmlns="http://www.w3.org/2000/svg"><path d="M21.775 11.29c.027 5.309-3.806 9.817-8.98 10.663-2.15.369-4.363.07-6.338-.856a.688.688 0 00-.484-.05c-1.677.401-3.356.791-5.036 1.183-.51.119-.734-.09-.627-.61.343-1.668.69-3.335 1.042-5.002a.902.902 0 00-.055-.614c-3.1-6.498.995-14.097 8.153-15.15 5.83-.858 11.3 3.134 12.193 8.902.076.508.12 1.02.132 1.534zM3.179 19.316c.974-.23 1.888-.433 2.792-.667a1.327 1.327 0 011.025.117 8.51 8.51 0 005.406.9c4.509-.702 7.687-5.07 6.933-9.563-.763-4.554-4.948-7.606-9.544-6.96-5.58.785-8.837 6.8-6.377 11.846.342.7.453 1.324.238 2.07-.208.713-.31 1.46-.473 2.257z" fill="#FCFDFC"/><path d="M13.607 16.618c-.995-.022-2.088-.425-3.088-1.068-1.797-1.152-3.346-2.56-4.363-4.463-.458-.857-.708-1.782-.506-2.759.18-.86.761-1.465 1.453-1.956.353-.25.846-.099 1.04.3.332.686.632 1.385.934 2.087a.692.692 0 01-.112.7c-.126.172-.261.337-.39.508-.296.394-.313.672-.026 1.075.592.834 1.364 1.493 2.152 2.133a6.2 6.2 0 001.18.783c.424.208.75.195 1.035-.168.517-.657 1.104-.793 1.87-.474.452.19.954.27 1.426.417.5.158.708.65.49 1.104-.549 1.137-1.597 1.786-3.095 1.781z" fill="#FCFDFC"/></svg>
